public/resource/img/site/icon-about.svg

<svg xmlns="http://www.w3.org/2000/svg" viewBox="0 0 32 32" stroke-width="0"><path d="M16 26c-5.514 0-10-4.485-10-10 0-5.513 4.486-10 10-10s10 4.486 10 10c0 5.515-4.486 10-10 10zm0-18c-4.411 0-8 3.589-8 8s3.589 8 8 8 8-3.589 8-8-3.589-8-8-8zm0 5.25a1.25 1.25 0 110-2.5 1.25 1.25 0 010 2.5zM15 15h2v6h-2v-6z"/></svg>

<svg version="1.1" xmlns="http://www.w3.org/2000/svg" xmlns:xlink="http://www.w3.org/1999/xlink" viewBox="0 0 32 32" stroke="none" stroke-width="0">
  <path d="M16,26 C10.486,26 6,21.515 6,16 C6,10.487 10.486,6 16,6 C21.514,6 26,10.486 26,16 C26,21.515 21.514,26 16,26 Z M16,8 C11.589,8 8,11.589 8,16 C8,20.411 11.589,24 16,24 C20.411,24 24,20.411 24,16 C24,11.589 20.411,8 16,8 Z M16,13.25 C15.3096441,13.25 14.75,12.6903559 14.75,12 C14.75,11.3096441 15.3096441,10.75 16,10.75 C16.6903559,10.75 17.25,11.3096441 17.25,12 C17.25,12.6903559 16.6903559,13.25 16,13.25 Z M15,15 L17,15 L17,21 L15,21 L15,15 Z" style="fill: black;"></path>
</svg>
